X:56
T:Young May Moon,The. GS.056
M:6/8
L:1/8
Q:3/8=120
S:George Spencer m/s, Leeds,1831
R:.Jig
O:England
A:Leeds
N:See notes to GS.05â€¦.. 1 â€“ not totally clear what slurring is meant.
N:dynamics and pause are shown below stave not on top. 2/1 shown in MS â€“
N:fingering for the double stop â€“ 2 for C and 1 for E..Cherri.
H:1831
Z:vmp.Cherri Graebe
K:C major
G | â€œ^pâ€c2c c2G | A2G G2G | c2c dcd | e2c cde |!
f2f e2e | dec B2G | â€œ^1â€ (AG).F (EF).G | A2G G2 ||!
â€œ^fâ€G | c2G c2G | A2G G2G | c2c dcd | e2c cde |!
f2f e2e | dec H B2G | AGF EFG | A2c â€œ^2/1â€³[E2c2] |]

